src/assets/logo.svg

<svg width="151" height="44" viewBox="0 0 151 44" fill="none" xmlns="http://www.w3.org/2000/svg">
<path fill-rule="evenodd" clip-rule="evenodd" d="M6.15532 33.2946C5.25369 33.2946 4.58006 32.5707 4.58006 31.6701V24.0152C4.58006 19.5469 4.35206 20.6276 7.59585 17.4236C21.7317 4.06732 16.2425 4.24744 29.6149 18.054C32.0434 20.7627 31.9985 19.4534 31.9985 23.8316V31.6667C31.9985 32.5707 31.28 33.2912 30.3749 33.2912H6.15532V33.2946Z" fill="#605DC8"/>
<path fill-rule="evenodd" clip-rule="evenodd" d="M30.896 35.1547L5.73676 35.2586C4.80059 35.2621 3.75042 35.8232 3.37388 36.5229L2.90061 37.4027L0.537726 41.7878L0.140457 42.529C-0.236085 43.2253 0.164639 43.7829 1.10081 43.7795L26.26 43.6756C27.1962 43.6721 28.2464 43.111 28.6229 42.4113L29.0962 41.5315L31.4591 37.1463L31.8563 36.4051C32.2329 35.7089 31.8321 35.1512 30.896 35.1547Z" fill="#605DC8"/>
<path d="M2.54861 18.7156C2.23079 18.7156 1.90952 18.629 1.6228 18.4454C0.821352 17.9363 0.5899 16.859 1.09771 16.0554C1.46389 15.4701 2.70061 14.2231 5.50912 11.4659L6.39693 10.5931C8.73218 8.38318 10.5147 6.56817 11.9449 5.10646C15.1679 1.81587 16.7985 0.153263 18.9023 0.222538C20.9888 0.277958 22.4362 1.92325 25.3138 5.19651C26.7267 6.8037 28.4816 8.8023 30.8514 11.2477C30.8652 11.265 30.8825 11.2789 30.8963 11.2962C31.228 11.6634 31.715 12.2003 32.2401 12.7752C33.9743 14.6734 34.8206 15.6086 35.0763 15.9688C35.629 16.7413 35.4494 17.8185 34.679 18.3727C33.9087 18.9234 32.8343 18.7468 32.2816 17.9744C32.0639 17.6869 30.5889 16.0693 29.708 15.1064C29.1863 14.5348 28.6993 14.0014 28.3642 13.6308C25.9495 11.1369 24.1704 9.11057 22.7368 7.4826C21.0233 5.5325 19.4032 3.68977 18.809 3.67245H18.8021C18.1699 3.67245 16.3356 5.54289 14.3976 7.52417C12.9467 9.00666 11.14 10.8494 8.78054 13.0766L7.91001 13.9321C6.74929 15.0717 4.33804 17.4375 3.97877 17.9293C3.65405 18.4454 3.10824 18.7225 2.54515 18.7225L2.54861 18.7156Z" fill="#605DC8"/>
<path fill-rule="evenodd" clip-rule="evenodd" d="M22.0976 33.2115V26.0588C22.0976 25.4665 21.6174 24.985 21.0267 24.985H15.1955C14.6047 24.985 14.1246 25.4665 14.1246 26.0588V33.2115C14.1246 33.2704 14.1142 33.3293 14.0969 33.3847H22.1252C22.1079 33.3293 22.0976 33.2739 22.0976 33.2115Z" fill="white"/>
<path d="M58.9784 10.0512V32.2205H54.5319V22.7874H45.0353V32.2205H40.5887V10.0512H45.0353V19.1666H54.5319V10.0512H58.9784ZM70.8506 32.5063C69.1567 32.5063 67.6322 32.1358 66.277 31.3947C64.9219 30.6324 63.8526 29.5631 63.0692 28.1868C62.3069 26.8105 61.9258 25.2224 61.9258 23.4226C61.9258 21.6228 62.3175 20.0348 63.1009 18.6585C63.9055 17.2821 64.996 16.2234 66.3723 15.4823C67.7486 14.7201 69.2838 14.3389 70.9777 14.3389C72.6716 14.3389 74.2067 14.7201 75.5831 15.4823C76.9594 16.2234 78.0393 17.2821 78.8227 18.6585C79.6273 20.0348 80.0296 21.6228 80.0296 23.4226C80.0296 25.2224 79.6167 26.8105 78.7909 28.1868C77.9863 29.5631 76.8853 30.6324 75.4878 31.3947C74.1115 32.1358 72.5657 32.5063 70.8506 32.5063ZM70.8506 28.6315C71.6553 28.6315 72.4069 28.4409 73.1057 28.0597C73.8256 27.6574 74.3973 27.0646 74.8208 26.2811C75.2443 25.4977 75.456 24.5449 75.456 23.4226C75.456 21.7499 75.0114 20.4688 74.122 19.5795C73.2539 18.669 72.1846 18.2138 70.9142 18.2138C69.6437 18.2138 68.5744 18.669 67.7063 19.5795C66.8593 20.4688 66.4358 21.7499 66.4358 23.4226C66.4358 25.0954 66.8487 26.387 67.6745 27.2975C68.5215 28.1868 69.5802 28.6315 70.8506 28.6315ZM104.825 14.3707C106.985 14.3707 108.721 15.0377 110.034 16.3717C111.368 17.6844 112.035 19.5266 112.035 21.8981V32.2205H107.589V22.5016C107.589 21.1252 107.239 20.0771 106.54 19.3572C105.842 18.6161 104.889 18.2456 103.682 18.2456C102.475 18.2456 101.512 18.6161 100.792 19.3572C100.093 20.0771 99.7436 21.1252 99.7436 22.5016V32.2205H95.297V22.5016C95.297 21.1252 94.9477 20.0771 94.2489 19.3572C93.5502 18.6161 92.5974 18.2456 91.3904 18.2456C90.1623 18.2456 89.1883 18.6161 88.4684 19.3572C87.7697 20.0771 87.4203 21.1252 87.4203 22.5016V32.2205H82.9737V14.6248H87.4203V16.7528C87.992 16.0117 88.7225 15.4294 89.6118 15.0059C90.5223 14.5824 91.5175 14.3707 92.5974 14.3707C93.9737 14.3707 95.2018 14.6671 96.2816 15.26C97.3615 15.8317 98.1979 16.6575 98.7908 17.7374C99.3625 16.721 100.188 15.9058 101.268 15.2918C102.369 14.6777 103.555 14.3707 104.825 14.3707ZM132.294 23.0415C132.294 23.6767 132.252 24.2484 132.167 24.7566H119.304C119.41 26.027 119.854 27.0222 120.638 27.7421C121.421 28.4621 122.385 28.822 123.528 28.822C125.18 28.822 126.355 28.1127 127.053 26.694H131.849C131.341 28.3879 130.367 29.7854 128.927 30.8865C127.488 31.9664 125.72 32.5063 123.623 32.5063C121.929 32.5063 120.405 32.1358 119.05 31.3947C117.716 30.6324 116.668 29.5631 115.905 28.1868C115.164 26.8105 114.794 25.2224 114.794 23.4226C114.794 21.6017 115.164 20.003 115.905 18.6267C116.646 17.2504 117.684 16.1917 119.018 15.4506C120.352 14.7095 121.887 14.3389 123.623 14.3389C125.296 14.3389 126.789 14.6989 128.102 15.4188C129.436 16.1387 130.462 17.1657 131.182 18.4996C131.924 19.8124 132.294 21.3264 132.294 23.0415ZM127.689 21.771C127.668 20.6276 127.255 19.7172 126.45 19.0396C125.645 18.3408 124.661 17.9915 123.496 17.9915C122.395 17.9915 121.464 18.3303 120.701 19.0078C119.96 19.6642 119.505 20.5853 119.336 21.771H127.689ZM141.955 32.5063C140.516 32.5063 139.224 32.2522 138.081 31.744C136.937 31.2147 136.027 30.5054 135.349 29.616C134.693 28.7267 134.333 27.7421 134.269 26.6623H138.748C138.832 27.3398 139.16 27.9009 139.732 28.3456C140.325 28.7903 141.055 29.0126 141.924 29.0126C142.771 29.0126 143.427 28.8432 143.893 28.5044C144.38 28.1656 144.623 27.7316 144.623 27.2022C144.623 26.6305 144.327 26.207 143.734 25.9318C143.162 25.6353 142.241 25.3177 140.971 24.9789C139.658 24.6613 138.578 24.3331 137.731 23.9943C136.905 23.6555 136.185 23.1368 135.571 22.438C134.979 21.7393 134.682 20.797 134.682 19.6113C134.682 18.6373 134.957 17.748 135.508 16.9434C136.08 16.1387 136.884 15.5035 137.922 15.0377C138.98 14.5719 140.219 14.3389 141.638 14.3389C143.734 14.3389 145.407 14.8683 146.656 15.927C147.905 16.9645 148.593 18.3726 148.721 20.1512H144.465C144.401 19.4525 144.105 18.902 143.575 18.4996C143.067 18.0762 142.379 17.8644 141.511 17.8644C140.706 17.8644 140.081 18.0126 139.637 18.3091C139.213 18.6055 139.002 19.0184 139.002 19.5478C139.002 20.1406 139.298 20.5959 139.891 20.9135C140.484 21.2099 141.405 21.517 142.654 21.8346C143.925 22.1522 144.973 22.4804 145.798 22.8192C146.624 23.1579 147.334 23.6873 147.926 24.4072C148.541 25.106 148.858 26.0376 148.879 27.2022C148.879 28.2186 148.593 29.129 148.022 29.9337C147.471 30.7383 146.667 31.3735 145.608 31.8393C144.57 32.284 143.353 32.5063 141.955 32.5063Z" fill="#605DC8"/>
</svg>

<svg xmlns="http://www.w3.org/2000/svg" width="151" height="44" fill="none"><path fill="#605DC8" fill-rule="evenodd" d="M6.16 33.3c-.9 0-1.58-.73-1.58-1.63v-7.65c0-4.47-.23-3.4 3.02-6.6 14.13-13.35 8.64-13.17 22.01.63 2.43 2.71 2.39 1.4 2.39 5.78v7.84c0 .9-.72 1.62-1.63 1.62H6.16ZM30.9 35.15l-25.16.1c-.94.01-1.99.57-2.37 1.27l-.47.88L.54 41.8l-.4.74c-.38.7.02 1.25.96 1.25l25.16-.1c.94 0 1.99-.57 2.36-1.27l.48-.88 2.36-4.38.4-.74c.37-.7-.03-1.26-.96-1.26Z" clip-rule="evenodd"/><path fill="#605DC8" d="M2.55 18.72c-.32 0-.64-.1-.93-.27a1.74 1.74 0 0 1-.52-2.4c.36-.58 1.6-1.83 4.4-4.58l.9-.88c2.33-2.2 4.11-4.02 5.54-5.48C15.17 1.8 16.8.15 18.9.22c2.09.06 3.54 1.7 6.41 4.98 1.42 1.6 3.17 3.6 5.54 6.05l.05.05 1.34 1.48a62.12 62.12 0 0 1 2.84 3.19 1.72 1.72 0 0 1-2.8 2c-.22-.28-1.7-1.9-2.57-2.86l-1.35-1.48c-2.41-2.5-4.19-4.52-5.62-6.15-1.72-1.95-3.34-3.79-3.93-3.8-.64 0-2.47 1.86-4.41 3.84a188.27 188.27 0 0 1-5.62 5.56l-.87.85c-1.16 1.14-3.57 3.5-3.93 4-.33.52-.87.8-1.43.8v-.01Z"/><path fill="#fff" fill-rule="evenodd" d="M22.1 33.21v-7.15c0-.6-.48-1.07-1.07-1.07H15.2c-.6 0-1.08.48-1.08 1.07v7.15c0 .06 0 .12-.02.17h8.03a.57.57 0 0 1-.03-.17Z" clip-rule="evenodd"/><path fill="#605DC8" d="M58.98 10.05v22.17h-4.45V22.8h-9.5v9.43H40.6V10.05h4.45v9.12h9.5v-9.12h4.44Zm11.87 22.46c-1.7 0-3.22-.37-4.57-1.12a8.34 8.34 0 0 1-3.21-3.2 9.67 9.67 0 0 1-1.14-4.77c0-1.8.39-3.39 1.17-4.76a8.27 8.27 0 0 1 3.27-3.18 9.34 9.34 0 0 1 4.6-1.14c1.7 0 3.24.38 4.61 1.14a8.06 8.06 0 0 1 3.24 3.18 9.26 9.26 0 0 1 1.21 4.76c0 1.8-.41 3.39-1.24 4.77a8.44 8.44 0 0 1-3.3 3.2 9.62 9.62 0 0 1-4.64 1.12Zm0-3.88a4.35 4.35 0 0 0 3.97-2.35c.42-.78.64-1.74.64-2.86 0-1.67-.45-2.95-1.34-3.84a4.26 4.26 0 0 0-3.2-1.37c-1.28 0-2.35.46-3.21 1.37-.85.89-1.27 2.17-1.27 3.84 0 1.68.4 2.97 1.23 3.88a4.2 4.2 0 0 0 3.18 1.33Zm33.98-14.26c2.16 0 3.9.67 5.2 2 1.34 1.31 2 3.16 2 5.53v10.32h-4.44V22.5c0-1.37-.35-2.42-1.05-3.14a3.74 3.74 0 0 0-2.86-1.11c-1.2 0-2.17.37-2.89 1.1-.7.73-1.05 1.78-1.05 3.15v9.72H95.3V22.5c0-1.37-.35-2.42-1.05-3.14a3.74 3.74 0 0 0-2.86-1.11c-1.23 0-2.2.37-2.92 1.1-.7.73-1.05 1.78-1.05 3.15v9.72h-4.45v-17.6h4.45v2.13a5.95 5.95 0 0 1 2.2-1.74 7 7 0 0 1 2.98-.64c1.37 0 2.6.3 3.68.89a6.02 6.02 0 0 1 2.51 2.48 6.4 6.4 0 0 1 2.48-2.45 7.19 7.19 0 0 1 3.56-.92Zm27.46 8.67c0 .64-.04 1.2-.12 1.72H119.3c.11 1.27.55 2.26 1.34 2.98a4.11 4.11 0 0 0 2.89 1.08c1.65 0 2.83-.7 3.52-2.13h4.8a8.1 8.1 0 0 1-2.92 4.2 8.58 8.58 0 0 1-5.3 1.62c-1.7 0-3.22-.37-4.58-1.12a8.19 8.19 0 0 1-3.14-3.2 9.9 9.9 0 0 1-1.12-4.77c0-1.82.37-3.42 1.11-4.8a7.76 7.76 0 0 1 3.12-3.17 9.32 9.32 0 0 1 4.6-1.11c1.68 0 3.17.36 4.48 1.08a7.45 7.45 0 0 1 3.08 3.08 9.07 9.07 0 0 1 1.11 4.54Zm-4.6-1.27a3.48 3.48 0 0 0-1.24-2.73 4.35 4.35 0 0 0-2.95-1.05c-1.1 0-2.04.34-2.8 1.02a4.37 4.37 0 0 0-1.36 2.76h8.35Zm14.27 10.74a9.44 9.44 0 0 1-3.88-.77 7.1 7.1 0 0 1-2.73-2.12 5.42 5.42 0 0 1-1.08-2.96h4.48c.08.68.41 1.24.98 1.69.6.44 1.33.66 2.2.66.84 0 1.5-.17 1.96-.5.49-.34.73-.78.73-1.3 0-.58-.3-1-.89-1.28-.57-.3-1.49-.61-2.76-.95-1.31-.32-2.4-.65-3.24-.99a5.76 5.76 0 0 1-2.16-1.55c-.6-.7-.89-1.64-.89-2.83 0-.97.28-1.86.83-2.67a5.78 5.78 0 0 1 2.41-1.9c1.06-.47 2.3-.7 3.72-.7 2.1 0 3.77.53 5.02 1.59a5.78 5.78 0 0 1 2.06 4.22h-4.25a2.23 2.23 0 0 0-.9-1.65c-.5-.42-1.2-.64-2.06-.64-.8 0-1.43.15-1.87.45-.43.3-.64.7-.64 1.24 0 .6.3 1.05.9 1.36.58.3 1.5.6 2.75.92 1.28.32 2.32.65 3.15.99.82.34 1.53.87 2.13 1.59.61.7.93 1.63.95 2.8a4.6 4.6 0 0 1-.86 2.72 5.53 5.53 0 0 1-2.41 1.9 9.22 9.22 0 0 1-3.66.68Z"/></svg>
